material/.icons/material/ticket-confirmation-outline.svg

<svg xmlns="http://www.w3.org/2000/svg" viewBox="0 0 24 24"><path d="M22 10V6a2 2 0 00-2-2H4a2 2 0 00-2 2v4a2 2 0 110 4v4c0 1.1.9 2 2 2h16c1.1 0 2-.9 2-2v-4c-1.1 0-2-.9-2-2s.9-2 2-2m-2-1.46c-1.19.69-2 1.99-2 3.46s.81 2.77 2 3.46V18H4v-2.54c1.19-.69 2-1.99 2-3.46 0-1.5-.8-2.77-2-3.46V6h16v2.54M11 15h2v2h-2m0-6h2v2h-2m0-6h2v2h-2z"/></svg>

<?xml version="1.0" encoding="UTF-8"?><!DOCTYPE svg PUBLIC "-//W3C//DTD SVG 1.1//EN" "http://www.w3.org/Graphics/SVG/1.1/DTD/svg11.dtd"><svg xmlns="http://www.w3.org/2000/svg" xmlns:xlink="http://www.w3.org/1999/xlink" version="1.1" id="mdi-ticket-confirmation-outline" width="24" height="24" viewBox="0 0 24 24"><path d="M22 10V6C22 4.89 21.1 4 20 4H4C2.9 4 2 4.89 2 6V10C3.11 10 4 10.9 4 12S3.11 14 2 14V18C2 19.1 2.9 20 4 20H20C21.1 20 22 19.1 22 18V14C20.9 14 20 13.1 20 12S20.9 10 22 10M20 8.54C18.81 9.23 18 10.53 18 12S18.81 14.77 20 15.46V18H4V15.46C5.19 14.77 6 13.47 6 12C6 10.5 5.2 9.23 4 8.54L4 6H20V8.54M11 15H13V17H11M11 11H13V13H11M11 7H13V9H11Z" /></svg>
